templates/app-template-black.svg

<svg width="64" height="64" version="1.1" xmlns="http://www.w3.org/2000/svg" xmlns:xlink="http://www.w3.org/1999/xlink">
 <defs>
  <filter id="filter8" x="-.012" y="-.012" width="1.024" height="1.024" color-interpolation-filters="sRGB">
   <feGaussianBlur stdDeviation="0.074081873"/>
  </filter>
  <linearGradient id="linearGradient7" x1="2.5981" x2="10.583" y1="2.8356" y2="11.312" gradientUnits="userSpaceOnUse" xlink:href="#linearGradient6"/>
  <linearGradient id="linearGradient6">
   <stop stop-color="#ffffff" offset="0"/>
   <stop stop-color="#ffffff" stop-opacity="0" offset="1"/>
  </linearGradient>
  <linearGradient id="linearGradient8" x1="15.081" x2="12.7" y1="14.816" y2="12.171" gradientUnits="userSpaceOnUse" xlink:href="#linearGradient6"/>
  <linearGradient id="linearGradient3" x1="8.4665" x2="8.4665" y1="1.0583" y2="15.875" gradientTransform="scale(3.7796)" gradientUnits="userSpaceOnUse">
   <stop stop-color="#323131" offset="0"/>
   <stop stop-color="#141414" offset="1"/>
  </linearGradient>
 </defs>
 <path d="m20.26 4.0003c-5.782 0-9.7427 1.7243-12.321 4.5348-2.5651 2.7962-3.9387 6.8037-3.9387 11.341v24.248c0 4.5378 1.3734 8.5453 3.9387 11.341 2.5784 2.8103 6.5391 4.5348 12.321 4.5348h23.549c5.782 0 9.7427-1.7243 12.321-4.5348 2.5651-2.7962 3.8703-6.4352 3.8703-11.341v-23.337c0-5.9351-1.305-9.4562-3.8703-12.252-2.5784-2.8103-6.5391-4.5348-12.321-4.5348h-18.315z" fill="url(#linearGradient3)" stroke-width="3.7796"/>
 <g transform="matrix(3.7796,0,0,3.7796,-1.5792e-4,3.4932e-4)" filter="url(#filter8)" opacity=".35">
  <path d="m5.3603 1.0583c-1.5298 0-2.5775 0.45637-3.2597 1.1999-0.67868 0.73981-1.0423 1.8002-1.0423 3.0008v6.415c0 1.2006 0.36361 2.2609 1.0423 3.0008 0.68219 0.74355 1.7299 1.1999 3.2597 1.1999h6.2305c1.5298 0 2.5775-0.45637 3.2597-1.1999 0.67868-0.73981 1.0242-1.7027 1.0242-3.0008v-6.1742c0-1.5703-0.34552-2.5018-1.0242-3.2416-0.68219-0.74355-1.7299-1.1999-3.2597-1.1999h-4.8456zm-0.00103 0.26406h6.2326c1.4772 0 2.437 0.43133 3.0644 1.1152 0.63411 0.69126 0.95341 1.5307 0.95341 3.0623v6.1742c0 1.2512-0.32181 2.1335-0.95341 2.822-0.6274 0.68381-1.5871 1.1136-3.0644 1.1136h-6.2326c-1.4772 0-2.437-0.42978-3.0644-1.1136-0.62537-0.68172-0.97253-1.6747-0.97253-2.822v-6.4145c0-1.1472 0.34717-2.1403 0.97253-2.822 0.6274-0.68381 1.5871-1.1152 3.0644-1.1152z" fill="url(#linearGradient7)"/>
  <path d="m5.3603 1.0583c-1.5298 0-2.5775 0.45637-3.2597 1.1999-0.67868 0.73981-1.0423 1.8002-1.0423 3.0008v6.415c0 1.2006 0.36361 2.2609 1.0423 3.0008 0.68219 0.74355 1.7299 1.1999 3.2597 1.1999h6.2305c1.5298 0 2.5775-0.45637 3.2597-1.1999 0.67868-0.73981 1.0242-1.7027 1.0242-3.0008v-6.1742c0-1.5703-0.34552-2.5018-1.0242-3.2416-0.68219-0.74355-1.7299-1.1999-3.2597-1.1999h-4.8456zm-0.00103 0.26406h6.2326c1.4772 0 2.437 0.43133 3.0644 1.1152 0.63411 0.69126 0.95341 1.5307 0.95341 3.0623v6.1742c0 1.2512-0.32181 2.1335-0.95341 2.822-0.6274 0.68381-1.5871 1.1136-3.0644 1.1136h-6.2326c-1.4772 0-2.437-0.42978-3.0644-1.1136-0.62537-0.68172-0.97253-1.6747-0.97253-2.822v-6.4145c0-1.1472 0.34717-2.1403 0.97253-2.822 0.6274-0.68381 1.5871-1.1152 3.0644-1.1152z" fill="url(#linearGradient8)" stroke-width="1.0001"/>
 </g>
</svg>

<?xml version="1.0" encoding="utf-8"?>
<svg width="64" height="64" version="1.1" xmlns="http://www.w3.org/2000/svg">
  <defs>
    <filter id="filter8" x="-.012" y="-.012" width="1.024" height="1.024" color-interpolation-filters="sRGB">
      <feGaussianBlur stdDeviation="0.074081873"/>
    </filter>
    <linearGradient id="linearGradient7" x1="2.5981" x2="10.583" y1="2.8356" y2="11.312" gradientUnits="userSpaceOnUse" href="#linearGradient6"/>
    <linearGradient id="linearGradient6">
      <stop stop-color="#ffffff" offset="0"/>
      <stop stop-color="#ffffff" stop-opacity="0" offset="1"/>
    </linearGradient>
    <linearGradient id="linearGradient8" x1="15.081" x2="12.7" y1="14.816" y2="12.171" gradientUnits="userSpaceOnUse" href="#linearGradient6"/>
    <linearGradient id="linearGradient3" x1="8.4665" x2="8.4665" y1="1.0583" y2="15.875" gradientTransform="matrix(3.7796, 0, 0, 3.7796, -0.000145, -0.000283)" gradientUnits="userSpaceOnUse">
      <stop stop-color="#323131" offset="0"/>
      <stop stop-color="#141414" offset="1"/>
    </linearGradient>
  </defs>
  <g>
    <path d="M 20.26 4.001 C 14.478 4.001 10.517 5.725 7.939 8.535 C 5.374 11.332 4 15.339 4 19.876 L 4 44.124 C 4 48.662 5.373 52.67 7.939 55.465 C 10.517 58.276 14.478 60 20.26 60 L 43.809 60 C 49.591 60 53.551 58.276 56.13 55.465 C 58.695 52.669 60 49.03 60 44.124 L 60 20.787 C 60 14.852 58.695 11.331 56.13 8.535 C 53.551 5.725 49.591 4.001 43.809 4.001 L 25.494 4.001 L 20.26 4.001 Z" fill="url(#linearGradient3)" stroke-width="3.7796"/>
    <g transform="matrix(3.7796, 0, 0, 3.7796, 0.000051, 0.000349)" filter="url(#filter8)" opacity=".35">
      <path d="m5.3603 1.0583c-1.5298 0-2.5775 0.45637-3.2597 1.1999-0.67868 0.73981-1.0423 1.8002-1.0423 3.0008v6.415c0 1.2006 0.36361 2.2609 1.0423 3.0008 0.68219 0.74355 1.7299 1.1999 3.2597 1.1999h6.2305c1.5298 0 2.5775-0.45637 3.2597-1.1999 0.67868-0.73981 1.0242-1.7027 1.0242-3.0008v-6.1742c0-1.5703-0.34552-2.5018-1.0242-3.2416-0.68219-0.74355-1.7299-1.1999-3.2597-1.1999h-4.8456zm-0.00103 0.26406h6.2326c1.4772 0 2.437 0.43133 3.0644 1.1152 0.63411 0.69126 0.95341 1.5307 0.95341 3.0623v6.1742c0 1.2512-0.32181 2.1335-0.95341 2.822-0.6274 0.68381-1.5871 1.1136-3.0644 1.1136h-6.2326c-1.4772 0-2.437-0.42978-3.0644-1.1136-0.62537-0.68172-0.97253-1.6747-0.97253-2.822v-6.4145c0-1.1472 0.34717-2.1403 0.97253-2.822 0.6274-0.68381 1.5871-1.1152 3.0644-1.1152z" fill="url(#linearGradient7)"/>
      <path d="m5.3603 1.0583c-1.5298 0-2.5775 0.45637-3.2597 1.1999-0.67868 0.73981-1.0423 1.8002-1.0423 3.0008v6.415c0 1.2006 0.36361 2.2609 1.0423 3.0008 0.68219 0.74355 1.7299 1.1999 3.2597 1.1999h6.2305c1.5298 0 2.5775-0.45637 3.2597-1.1999 0.67868-0.73981 1.0242-1.7027 1.0242-3.0008v-6.1742c0-1.5703-0.34552-2.5018-1.0242-3.2416-0.68219-0.74355-1.7299-1.1999-3.2597-1.1999h-4.8456zm-0.00103 0.26406h6.2326c1.4772 0 2.437 0.43133 3.0644 1.1152 0.63411 0.69126 0.95341 1.5307 0.95341 3.0623v6.1742c0 1.2512-0.32181 2.1335-0.95341 2.822-0.6274 0.68381-1.5871 1.1136-3.0644 1.1136h-6.2326c-1.4772 0-2.437-0.42978-3.0644-1.1136-0.62537-0.68172-0.97253-1.6747-0.97253-2.822v-6.4145c0-1.1472 0.34717-2.1403 0.97253-2.822 0.6274-0.68381 1.5871-1.1152 3.0644-1.1152z" fill="url(#linearGradient8)" stroke-width="1.0001"/>
    </g>
  </g>
  <ellipse style="fill: rgb(216, 216, 216);" cx="32" cy="32" rx="20" ry="20">
    <title>base-centro</title>
  </ellipse>
</svg>
